images/Ubuntu 20.04.svg

<svg height="2304" viewBox="0 0 4096 2304" width="4096" xmlns="http://www.w3.org/2000/svg" xmlns:xlink="http://www.w3.org/1999/xlink"><linearGradient id="a" gradientTransform="matrix(2.1333334 0 0 2.1333313 .000341 59.176133)" gradientUnits="userSpaceOnUse" x1="1029.9021" x2="1028.7032" y1="-14.805381" y2="1030.1417"><stop offset="0" stop-color="#af2a26"/><stop offset=".47946641" stop-color="#5c0b5a"/><stop offset="1" stop-color="#2c0226"/></linearGradient><path d="m0 .002016h4096v2303.9978h-4096z" fill="url(#a)"/><path d="m1332.7031.00195312h-1332.70305935v1319.17184688c261.76783935-256.8686 1131.15415935-1110.73614 1332.70305935-1319.17184688z" fill="#f7f7f7" opacity=".02"/><g fill="#fff"><path d="m.00004065 785.91797v1518.08203h1568.08195935z" opacity=".015"/><path d="m3957.6406.00195312h-3817.65033l1066.01173 2303.99804688h1701.3613z" opacity=".02"/><path d="m4096 1321.9023v-1321.90034688h-1308.7852z" opacity=".02"/></g><path d="m2543.6504 2304h1552.3496v-1536.0293z" fill="#fff3fe" opacity=".015"/></svg>

<?xml version="1.0" encoding="UTF-8" standalone="no"?>
<!-- Created with Inkscape (http://www.inkscape.org/) -->

<svg
   xmlns:dc="http://purl.org/dc/elements/1.1/"
   xmlns:cc="http://creativecommons.org/ns#"
   xmlns:rdf="http://www.w3.org/1999/02/22-rdf-syntax-ns#"
   xmlns:svg="http://www.w3.org/2000/svg"
   xmlns="http://www.w3.org/2000/svg"
   xmlns:xlink="http://www.w3.org/1999/xlink"
   xmlns:sodipodi="http://sodipodi.sourceforge.net/DTD/sodipodi-0.dtd"
   xmlns:inkscape="http://www.inkscape.org/namespaces/inkscape"
   version="1.1"
   id="svg861"
   width="4096"
   height="2304"
   viewBox="0 0 4096 2304"
   sodipodi:docname="Ubuntu 20.04.svg"
   inkscape:version="0.92.5 (2060ec1f9f, 2020-04-08)">
  <metadata
     id="metadata867">
    <rdf:RDF>
      <cc:Work
         rdf:about="">
        <dc:format>image/svg+xml</dc:format>
        <dc:type
           rdf:resource="http://purl.org/dc/dcmitype/StillImage" />
        <dc:title></dc:title>
      </cc:Work>
    </rdf:RDF>
  </metadata>
  <defs
     id="defs865">
    <linearGradient
       inkscape:collect="always"
       xlink:href="#linearGradient876"
       id="linearGradient880"
       gradientUnits="userSpaceOnUse"
       x1="1029.9021"
       y1="-14.805381"
       x2="1028.7032"
       y2="1030.1417"
       gradientTransform="matrix(2.1333334,0,0,2.1333313,3.4065037e-4,59.176133)" />
    <linearGradient
       inkscape:collect="always"
       id="linearGradient876">
      <stop
         style="stop-color:#af2a26;stop-opacity:1"
         offset="0"
         id="stop872" />
      <stop
         id="stop838"
         offset="0.47946641"
         style="stop-color:#5c0b5a;stop-opacity:1" />
      <stop
         style="stop-color:#2c0226;stop-opacity:1"
         offset="1"
         id="stop874" />
    </linearGradient>
    <linearGradient
       gradientTransform="translate(-1077.1061,2615.3678)"
       inkscape:collect="always"
       xlink:href="#linearGradient835"
       id="linearGradient826"
       gradientUnits="userSpaceOnUse"
       x1="1046.9202"
       y1="542.77643"
       x2="4096.0005"
       y2="1152.001" />
    <linearGradient
       inkscape:collect="always"
       id="linearGradient835">
      <stop
         style="stop-color:#ffffff;stop-opacity:1"
         offset="0"
         id="stop831" />
      <stop
         style="stop-color:#ffffff;stop-opacity:0;"
         offset="1"
         id="stop833" />
    </linearGradient>
  </defs>
  <sodipodi:namedview
     pagecolor="#ffffff"
     bordercolor="#666666"
     borderopacity="1"
     objecttolerance="10"
     gridtolerance="10"
     guidetolerance="10"
     inkscape:pageopacity="0"
     inkscape:pageshadow="2"
     inkscape:window-width="1920"
     inkscape:window-height="1016"
     id="namedview863"
     showgrid="false"
     inkscape:zoom="0.1831598"
     inkscape:cx="2048.5"
     inkscape:cy="874.05316"
     inkscape:window-x="0"
     inkscape:window-y="27"
     inkscape:window-maximized="1"
     inkscape:current-layer="svg861" />
  <rect
     style="opacity:1;fill:url(#linearGradient880);fill-opacity:1;stroke:none;stroke-width:2.13333321;stroke-linecap:round;stroke-linejoin:round;stroke-miterlimit:4;stroke-dasharray:none;stroke-dashoffset:0;stroke-opacity:1"
     id="rect4731"
     width="4096"
     height="2303.9978"
     x="0"
     y="0.0020157695" />
  <path
     style="opacity:0.02000002;fill:#f7f7f7;fill-opacity:1;stroke:none;stroke-width:1px;stroke-linecap:butt;stroke-linejoin:miter;stroke-opacity:1"
     d="M 1332.7031,0.00195312 H 4.0650368e-5 V 1319.1738 C 261.76788,1062.3052 1131.1542,208.43766 1332.7031,0.00195312 Z"
     id="path878"
     inkscape:connector-curvature="0" />
  <path
     style="opacity:0.01499999;fill:#ffffff;fill-opacity:1;stroke:none;stroke-width:1px;stroke-linecap:butt;stroke-linejoin:miter;stroke-opacity:1"
     d="M 4.0650368e-5,785.91797 V 2304 H 1568.082 Z"
     id="path861"
     inkscape:connector-curvature="0" />
  <path
     style="opacity:0.02000002;fill:#ffffff;fill-opacity:1;stroke:none;stroke-width:1px;stroke-linecap:butt;stroke-linejoin:miter;stroke-opacity:1"
     d="M 3957.6406,0.00195312 H 139.99027 L 1206.002,2304 h 1701.3613 z"
     id="path881"
     inkscape:connector-curvature="0" />
  <path
     style="opacity:0.02000002;fill:#ffffff;fill-opacity:1;stroke:none;stroke-width:1px;stroke-linecap:butt;stroke-linejoin:miter;stroke-opacity:1"
     d="M 4096,1321.9023 V 0.00195312 H 2787.2148 Z"
     id="path892"
     inkscape:connector-curvature="0" />
  <path
     style="opacity:0.01499999;fill:#fff3fe;fill-opacity:1;stroke:none;stroke-width:1px;stroke-linecap:butt;stroke-linejoin:miter;stroke-opacity:1"
     d="M 2543.6504,2304 H 4096 V 767.9707 Z"
     id="path867"
     inkscape:connector-curvature="0" />
</svg>
